components/ui-node-icon/src/standardize/standardize.small.svg

<svg width="16" height="16" viewBox="0 0 16 16" fill="none" xmlns="http://www.w3.org/2000/svg">
  <path fill-rule="evenodd" clip-rule="evenodd" d="M15 2H6L6 11H15V2ZM6 1C5.44772 1 5 1.44771 5 2V5H3C2.44772 5 2 5.44771 2 6V14C2 14.5523 2.44772 15 3 15H11C11.5523 15 12 14.5523 12 14V12H15C15.5523 12 16 11.5523 16 11V2C16 1.44772 15.5523 1 15 1H6ZM11 12H6C5.44772 12 5 11.5523 5 11V6H3L3 14H11V12ZM8.5 4C8.22386 4 8 4.22386 8 4.5C8 4.77614 8.22386 5 8.5 5H10V8.5C10 8.77614 10.2239 9 10.5 9C10.7761 9 11 8.77614 11 8.5V5H12.5C12.7761 5 13 4.77614 13 4.5C13 4.22386 12.7761 4 12.5 4H10.5H8.5Z" fill="currentColor"/>
</svg>

<svg xmlns="http://www.w3.org/2000/svg" width="16" height="16" fill="none" viewBox="0 0 16 16">
  <path fill="currentColor" fill-rule="evenodd" d="M15 2H6v9h9V2ZM6 1a1 1 0 0 0-1 1v3H3a1 1 0 0 0-1 1v8a1 1 0 0 0 1 1h8a1 1 0 0 0 1-1v-2h3a1 1 0 0 0 1-1V2a1 1 0 0 0-1-1H6Zm5 11H6a1 1 0 0 1-1-1V6H3v8h8v-2ZM8.5 4a.5.5 0 0 0 0 1H10v3.5a.5.5 0 0 0 1 0V5h1.5a.5.5 0 0 0 0-1h-4Z" clip-rule="evenodd"/>
</svg>
